share/icons/Flat-Remix-Blue-Dark/mimetypes/scalable/application-vnd.nintendo.snes.rom.svg

<svg xmlns="http://www.w3.org/2000/svg" xmlns:xlink="http://www.w3.org/1999/xlink" width="36pt" height="36pt" version="1.1" viewBox="0 0 36 36"> <defs> <clipPath id="clip1"> <path d="M 20 2 L 31 2 L 31 13 L 20 13 Z M 20 2"/> </clipPath> <clipPath id="clip2"> <path d="M 20.515625 2.625 L 30.328125 12.4375 L 22.023438 12.4375 C 21.292969 12.4375 20.515625 11.660156 20.515625 10.929688 Z M 20.515625 2.625"/> </clipPath> <image id="image6" width="36" height="36" xlink:href="data:image/png;base64,iVBORw0KGgoAAAANSUhEUgAAACQAAAAkCAYAAADhAJiYAAAABmJLR0QA/wD/AP+gvaeTAAAAmklEQVRYhe3T0QqCQBBG4aOtYEoUvf9Lildltl00C4tkbBeTIP+BAUEYP1YW1Pcqh53B9kbgaVPcwQF0tAmGSrMZ6AKcDQXw+AUVHEAtcAUaewYYgYmC3+cBCkAPnDJQMcoDVNnebgEqQnmAclTz4d0I3P4JStc9AjXvk4qLWQV53LLeEOl05gw4A3dgcPiuUkoppZRSSqk99gLWvSJpuDnlsAAAAABJRU5ErkJggg=="/> </defs> <g> <path style="fill:rgb(90.196%,90.196%,90.196%)" d="M 7.347656 3.152344 C 6.675781 3.152344 6.042969 3.785156 6.042969 4.457031 L 6.042969 31.847656 C 6.042969 32.480469 6.714844 33.152344 7.347656 33.152344 L 28.21875 33.152344 C 28.851562 33.152344 29.523438 32.480469 29.523438 31.847656 L 29.523438 11.632812 L 21.042969 3.152344 Z M 7.347656 3.152344"/> <g clip-path="url(#clip1)"> <g clip-path="url(#clip2)"> <use xlink:href="#image6"/> </g> </g> <path style="fill:rgb(100.000%,100.000%,100.000%)" d="M 21.042969 3.152344 L 29.523438 11.632812 L 22.347656 11.632812 C 21.714844 11.632812 21.042969 10.960938 21.042969 10.328125 Z M 21.042969 3.152344"/> <path style="fill:rgb(100.000%,100.000%,100.000%)" d="M 18 12.1875 C 13.730469 12.1875 10.25 15.65625 10.25 19.9375 C 10.25 24.21875 13.730469 27.6875 18 27.6875 C 22.269531 27.6875 25.75 24.21875 25.75 19.9375 C 25.75 15.65625 22.269531 12.1875 18 12.1875 Z M 18 13.164062 C 21.761719 13.164062 24.792969 16.199219 24.792969 19.9375 C 24.792969 23.675781 21.761719 26.710938 18 26.710938 C 14.238281 26.710938 11.207031 23.675781 11.207031 19.9375 C 11.207031 16.199219 14.238281 13.164062 18 13.164062 Z M 18.21875 14.132812 C 17.671875 14.132812 17.125 14.339844 16.707031 14.757812 L 12.816406 18.644531 C 11.976562 19.480469 11.976562 20.828125 12.816406 21.667969 C 13.65625 22.503906 15.003906 22.503906 15.84375 21.667969 L 19.730469 17.78125 C 20.570312 16.941406 20.570312 15.597656 19.730469 14.757812 C 19.3125 14.339844 18.765625 14.132812 18.21875 14.132812 Z M 18.21875 14.4375 C 18.6875 14.4375 19.160156 14.617188 19.515625 14.972656 C 20.234375 15.691406 20.234375 16.851562 19.515625 17.566406 C 18.796875 18.28125 17.636719 18.28125 16.921875 17.566406 C 16.207031 16.851562 16.207031 15.691406 16.921875 14.972656 C 17.28125 14.617188 17.75 14.4375 18.21875 14.4375 Z M 21.675781 17.582031 C 21.128906 17.582031 20.582031 17.792969 20.164062 18.210938 L 16.273438 22.097656 C 15.433594 22.933594 15.433594 24.28125 16.273438 25.117188 C 17.113281 25.953125 18.460938 25.953125 19.300781 25.117188 L 23.191406 21.234375 C 24.027344 20.394531 24.027344 19.046875 23.191406 18.210938 C 22.769531 17.792969 22.222656 17.582031 21.675781 17.582031 Z M 21.675781 17.890625 C 22.148438 17.890625 22.617188 18.070312 22.976562 18.425781 C 23.691406 19.148438 23.691406 20.300781 22.976562 21.019531 C 22.257812 21.734375 21.097656 21.734375 20.382812 21.019531 C 19.664062 20.296875 19.664062 19.144531 20.382812 18.425781 C 20.738281 18.070312 21.207031 17.890625 21.675781 17.890625 Z M 14.328125 18.324219 C 14.800781 18.324219 15.269531 18.503906 15.628906 18.859375 C 16.34375 19.574219 16.34375 20.734375 15.628906 21.453125 C 14.90625 22.167969 13.746094 22.167969 13.035156 21.453125 C 12.316406 20.734375 12.316406 19.578125 13.035156 18.859375 C 13.390625 18.503906 13.859375 18.324219 14.328125 18.324219 Z M 17.789062 21.773438 C 18.257812 21.773438 18.722656 21.953125 19.082031 22.3125 C 19.796875 23.027344 19.796875 24.1875 19.082031 24.902344 C 18.367188 25.625 17.203125 25.625 16.492188 24.902344 C 15.773438 24.191406 15.773438 23.03125 16.492188 22.3125 C 16.847656 21.953125 17.320312 21.773438 17.789062 21.773438 Z M 17.789062 21.773438"/> </g> </svg>

<svg width="36pt" height="36pt" version="1.1" viewBox="0 0 36 36" xmlns="http://www.w3.org/2000/svg"><defs><filter id="a" x="-.192" y="-.192" width="1.384" height="1.384" color-interpolation-filters="sRGB"><feGaussianBlur stdDeviation="0.67843748"/></filter></defs><path d="m7.3477 3.9022c-0.67188 0-1.3047 0.63281-1.3047 1.3047v27.391c0 0.63281 0.67188 1.3047 1.3047 1.3047h20.871c0.63281 0 1.3047-0.67188 1.3047-1.3047v-20.215l-8.4805-8.4805z" opacity=".3"/><path d="m7.3477 3.1523c-0.67188 0-1.3047 0.63281-1.3047 1.3047v27.391c0 0.63281 0.67188 1.3047 1.3047 1.3047h20.871c0.63281 0 1.3047-0.67188 1.3047-1.3047v-20.215l-8.4805-8.4805z" fill="#e5e5e5"/><path d="m20.668 3.5272 8.4805 8.4805h-7.1758c-0.63281 0-1.3047-0.67187-1.3047-1.3047z" filter="url(#a)" opacity=".2"/><path d="m21.043 3.1523 8.4805 8.4805h-7.1758c-0.63281 0-1.3047-0.67187-1.3047-1.3047z" fill="#fff"/><path d="m18 12.188c-4.2695 0-7.75 3.4688-7.75 7.75s3.4805 7.75 7.75 7.75 7.75-3.4688 7.75-7.75-3.4805-7.75-7.75-7.75zm0 0.97656c3.7617 0 6.793 3.0352 6.793 6.7734s-3.0312 6.7734-6.793 6.7734-6.793-3.0352-6.793-6.7734 3.0312-6.7734 6.793-6.7734zm0.21875 0.96875c-0.54688 0-1.0938 0.20703-1.5117 0.625l-3.8906 3.8867c-0.83984 0.83594-0.83984 2.1836 0 3.0234 0.83984 0.83594 2.1875 0.83594 3.0273 0l3.8867-3.8867c0.83984-0.83984 0.83984-2.1836 0-3.0234-0.41797-0.41797-0.96484-0.625-1.5117-0.625zm0 0.30469c0.46875 0 0.94141 0.17969 1.2969 0.53516 0.71875 0.71875 0.71875 1.8789 0 2.5938s-1.8789 0.71484-2.5938 0-0.71484-1.875 0-2.5938c0.35938-0.35547 0.82812-0.53516 1.2969-0.53516zm3.457 3.1445c-0.54688 0-1.0938 0.21094-1.5117 0.62891l-3.8906 3.8867c-0.83984 0.83594-0.83984 2.1836 0 3.0195 0.83984 0.83594 2.1875 0.83594 3.0273 0l3.8906-3.8828c0.83594-0.83984 0.83594-2.1875 0-3.0234-0.42188-0.41797-0.96875-0.62891-1.5156-0.62891zm0 0.30859c0.47266 0 0.94141 0.17969 1.3008 0.53516 0.71484 0.72266 0.71484 1.875 0 2.5938-0.71875 0.71484-1.8789 0.71484-2.5938 0-0.71875-0.72266-0.71875-1.875 0-2.5938 0.35547-0.35547 0.82422-0.53516 1.293-0.53516zm-7.3477 0.43359c0.47266 0 0.94141 0.17969 1.3008 0.53516 0.71484 0.71484 0.71484 1.875 0 2.5938-0.72266 0.71484-1.8828 0.71484-2.5938 0-0.71875-0.71875-0.71875-1.875 0-2.5938 0.35547-0.35547 0.82422-0.53516 1.293-0.53516zm3.4609 3.4492c0.46875 0 0.93359 0.17969 1.293 0.53906 0.71484 0.71484 0.71484 1.875 0 2.5898-0.71484 0.72266-1.8789 0.72266-2.5898 0-0.71875-0.71094-0.71875-1.8711 0-2.5898 0.35547-0.35938 0.82812-0.53906 1.2969-0.53906z" fill="#fff"/></svg>
